X:1
T:The Cera Cash Store
T:The Cera Cash Store
T:A.K.A. The reason why you and me quitted this game for good
%%score [ 1 2 ]
L:1/8
Q:1/4=130
M:4/4
K:F
V:1 treble nm="Piano"
V:2 bass nm="Piano"
V:1
!mf! [B,DF]3/2 z/ !arpeggio![fbc']3 b2 a- | a2 gf Gg G2 | [Ge]3 c- c[EGc]d_e | ^F[Fc]^fa- a c'3 | %4
 c'bab- b a2 f- | f2 g_d d [Ge]2 c | [A,CE]c''ac' c''[CEA] z [CEc]- | [CEc]efg ba g[cf]/^c/ | %8
 [Fd] z [Fd] z f [Fd]2 f- | f2 ge [EG]E[EG]E | [CEG] z [Ge] z g [Ge]2 g- | g_a=a_e' d'c'ba- | %12
 a z{/a} b2 a g2 f- | fg_de cdBA{B |=B} cc''ad' c''a[fc'][af']- | [af'] e'2 [gc']2 f3 | %16
 d z a z f [d'a']2 [_a_a'] | [_a_d']3 [gg']- [gg']2 [ff']2 | [ee']2 g2 e c2 [g_e']- | %19
 [ge'][f_a][_eg][ce] [ce][_Ac][GB][FA] | G2 =B G2 def- | f2 ^c f2 ^f2 b | a3 f- f2 cg/a/ | %23
 [Bgb]3 [Aca]- [Aca] [Gcg]2 f/g/ | [da]2 [da]2 d' [aa']2 _d' | _a g2 [c'g']2 f[af']e | %26
 [cc']2 [dg] z c'gc'[dgb]- | [dgb]ab[^F_e] dc[FB]A | [Bdfb] z [FBdf] z [cgc'][cgc'] z [dfad'] | %29
 z [cfac']c''[dfad'] c''[eac'e']ba | [FGBdf]2 f [GAceg]3 [cdfac']2- | [cdfac']8 |] %32
V:2
!mp! [A,,G,]3/2 z/ [B,DFG]G,, G, [B,DF]2 [B,_DE] | G,,[B,DE][G,B,DE]_D, D[G,B,E][B,D][G,E] | %2
 [A,,A,]2 [CE]E, A,E,_E,D, | [A,CD][B,_D]A,[E^F] A,[CF]A,^F, | %4
 [G,B,D] z [G,B,D] z D, [B,DF]2 [G,B,_DE]- | [G,B,_DE][B,DE][G,B,DE]_F, [B,D][G,E][B,DE] z | %6
 F,,2 [A,CE]C, F,[C,A,] z [F,,F,]- | [F,,F,][A,CE]F,A,- A, F,2 C, | %8
 [G,B,D] z [G,B,D] z F, [G,B,D]2 [G,B,_DE]- | [G,B,_DE][DF][G,B,DE]_F, D[G,B,]D[G,B,] | %10
 A,, z [A,CE]E, z [F,CE]_E,D, | [C^F][A,CF]A,,[_E,C] [D,A,][CF]A,^F, | %12
 [G,B,DF] z [G,B,DF]D, G, [B,DF]2 [G,B,_DE] | G,,G,[B,_DE]G, [DE][G,B,E]DA,, | %14
 [F,A,CE]2 [F,A,CE] z F,[A,CE] z [F,A,CE]- | [F,A,CE]2 E,[E,A,C]- [E,A,C]F,A,C, | %16
 [B,DFA]2 [B,DFA] z F, [B,DFA]2 B,, | [_E,B,_DF]2 E,[B,D_A] B,2 [E,DF] z | %18
 [A,CE]2 [A,CE] z E,[A,CE] z A, | [_A,CE_G]3 [CEG] _E,2 [A,CE] z | %20
 [G,_B,DF]2 [G,B,DF]F, F,[G,B,DF] z G, | [^F,B,^CF]2 z [F,B,C] ^C,2 [E,F,B,C]2 | %22
 [F,A,C]2 [F,A,C]C, C, [F,A,C]2 C, | [F,B,CE]2 C,F, [A,CE]C, C,,2 | %24
 [B,,B,] z [B,DF] z F,[B,DFA] z B,, | [_E,B,_DF] z E,[B,DF] B,,2 [_E,,E,] z | %26
 [A,CEG] z [A,CE]E, E,[A,CE] z [_E,C] | [D,^F,A,C]3 [A,C] A,,2 [A,C] z | %28
 [G,,G,] z [G,,G,]2 [A,,A,][A,,A,] z [B,,B,] | z [B,,B,] z [B,,B,] z [F,,F,] C/G,/F,/C,/ | %30
 [G,,,G,,]2 G,,[A,,,A,,]- [A,,,A,,]A,, [B,,,B,,]2- | [B,,,B,,]8 |] %32

